X:56
T: Weberlied (Band 1), S. 167
N: P0831
O: Lothringen
S: PINCK, Louis: Verklingende Weisen, Bd 1, Metz 1928]
R: Arbeits-, Berufslied]
M: 2/4
L: 1/16
K: D
F2G2 | A4F4F2G2 | A4F4F2G2 | A4d4B4 | B4A2B2A4
G4E4F4 | G4E4F2G2 | A4B2A2G2FF | F4E2F2E4
B4E4E2G2 | F4D2D2D4 | A4E2E2E2G2 | F4D4D4 | z4
D2B2 | B4B4B2B2 | A4B2c2d4 | z4
F2A2 | A4E2F2E2C2 | D4z4

